X: 27355
T: Mistress Heywood's Fancy
R: mazurka
M: 3/4
K: Dmajor
de|:f3e d2|A2 FG AF|G3B AG|FG AB A2|
f3e d2|A2 FG A2|EF GE ce|1 d4 e2:|2 d2 e2 f2||
|:g2 gf eg|fa d2 ef|e2 ed cA|dA de fa|
g2 gf eg|fa d2 ef|ed cA ce|1 d2 f2 a2:|2 d2 =c2 A2||
|:B2 BA GB|AG FG A2|E2 EF GB|AF de d=c|
B2 BA GB|AF d2 fg|ae cA ce|1 d2 =c2 A2:|2 d4||

